assets/images/money-check.svg

<svg viewBox="0 0 576 512" xmlns="http://www.w3.org/2000/svg"><path d="m64 64c-35.3 0-64 28.7-64 64v256c0 35.3 28.7 64 64 64h448c35.3 0 64-28.7 64-64v-256c0-35.3-28.7-64-64-64zm48 160h160c8.8 0 16 7.2 16 16s-7.2 16-16 16h-160c-8.8 0-16-7.2-16-16s7.2-16 16-16zm-16 112c0-8.8 7.2-16 16-16h352c8.8 0 16 7.2 16 16s-7.2 16-16 16h-352c-8.8 0-16-7.2-16-16zm280-176h80c13.3 0 24 10.7 24 24v48c0 13.3-10.7 24-24 24h-80c-13.3 0-24-10.7-24-24v-48c0-13.3 10.7-24 24-24z"/></svg>

<svg xmlns="http://www.w3.org/2000/svg" viewBox="0 0 576 512"><!--! Font Awesome Pro 6.4.0 by @fontawesome - https://fontawesome.com License - https://fontawesome.com/license (Commercial License) Copyright 2023 Fonticons, Inc. --><path d="M64 64C28.7 64 0 92.7 0 128V384c0 35.3 28.7 64 64 64H512c35.3 0 64-28.7 64-64V128c0-35.3-28.7-64-64-64H64zm48 160H272c8.8 0 16 7.2 16 16s-7.2 16-16 16H112c-8.8 0-16-7.2-16-16s7.2-16 16-16zM96 336c0-8.8 7.2-16 16-16H464c8.8 0 16 7.2 16 16s-7.2 16-16 16H112c-8.8 0-16-7.2-16-16zM376 160h80c13.3 0 24 10.7 24 24v48c0 13.3-10.7 24-24 24H376c-13.3 0-24-10.7-24-24V184c0-13.3 10.7-24 24-24z"/></svg>
